X: 265
T:Balkan Hills
M:2/4
R:march
L:1/16
Z:Alf Warnock - alf0@rogers.com
K:D
a>g|\
"D"f<Af>e d2A2|"G"B<Gd>B "D"A2d>e|f>AA<a "Em"g>fe<d|"A7"f2e2 e2a>g|
"D"f<Af>e d2A2|"G"B<Gd>B "D"A2d>e|f>a^g<a "A7"g>ec<A|"D"d4 d2:|
f>g|\
"D"a>df<a f2e<d|"G"B<Gd>B "D"A2f>g|a>df<a "Em"g>fe<d|"A7"f2e2 e2f>g|
"D"a>df<a f2e<d|"G"B<Gd>B "D"A2d>e|f>a^g<a "A7"g>ec<A|"D"d4 d2:|
A>B|\
"D"d2e2 f2e<d|"G"B<Gd>B "D"A2d>e|f>AA<a "Em"g>fe<d|"A7"f2e2 e2A<B|
"D"d2e2 f2e<d|"G"B<Gd>B "D"A2d>e|f>a^g<a "A7"g>ec<A|"D"d4 d2:|
f>g|\
"D"a>df<a A>df<a|f<df<a f2e>f|a>df<a "Em"g>fe<d|"A7"f2e2 e2f>g|
"D"a>df<a A>df<a|"G"B<Gd>B "D"A2d>e|f>a^g<a "A7"g>ec<A|"D"d4 d2:|
